images/portal/4151.svg

<?xml version="1.0" standalone="no"?><!DOCTYPE svg PUBLIC "-//W3C//DTD SVG 1.1//EN" "http://www.w3.org/Graphics/SVG/1.1/DTD/svg11.dtd"><svg xmlns:xlink="http://www.w3.org/1999/xlink" version="1.1" class="highcharts-root" style="font-family:arial;font-size:12px;" xmlns="http://www.w3.org/2000/svg" width="485" height="415"><desc>Created with Highstock 5.0.14</desc><defs><clipPath id="highcharts-wx0vvp8-6"><rect x="0" y="0" width="282" height="277" fill="none"></rect></clipPath><clipPath id="highcharts-wx0vvp8-7"><rect x="0" y="0" width="282" height="277" fill="none"></rect></clipPath></defs><rect fill="#fbfbfb" class="highcharts-background" x="0" y="0" width="485" height="415" rx="0" ry="0"></rect><rect fill="none" class="highcharts-plot-background" x="53" y="87" width="282" height="277"></rect><g class="highcharts-pane-group"></g><g class="highcharts-grid highcharts-xaxis-grid "><path fill="none" class="highcharts-grid-line" d="M 108.5 87 L 108.5 364" opacity="1"></path><path fill="none" class="highcharts-grid-line" d="M 165.5 87 L 165.5 364" opacity="1"></path><path fill="none" class="highcharts-grid-line" d="M 221.5 87 L 221.5 364" opacity="1"></path><path fill="none" class="highcharts-grid-line" d="M 278.5 87 L 278.5 364" opacity="1"></path><path fill="none" class="highcharts-grid-line" d="M 334.5 87 L 334.5 364" opacity="1"></path><path fill="none" class="highcharts-grid-line" d="M 52.5 87 L 52.5 364" opacity="1"></path></g><g class="highcharts-grid highcharts-yaxis-grid "><path fill="none" stroke="#B9CFD7" stroke-width="0.5" class="highcharts-grid-line" d="M 53 364.25 L 335 364.25" opacity="1"></path><path fill="none" stroke="#B9CFD7" stroke-width="0.5" class="highcharts-grid-line" d="M 53 336.25 L 335 336.25" opacity="1"></path><path fill="none" stroke="#B9CFD7" stroke-width="0.5" class="highcharts-grid-line" d="M 53 309.25 L 335 309.25" opacity="1"></path><path fill="none" stroke="#B9CFD7" stroke-width="0.5" class="highcharts-grid-line" d="M 53 281.25 L 335 281.25" opacity="1"></path><path fill="none" stroke="#B9CFD7" stroke-width="0.5" class="highcharts-grid-line" d="M 53 253.25 L 335 253.25" opacity="1"></path><path fill="none" stroke="#B9CFD7" stroke-width="0.5" class="highcharts-grid-line" d="M 53 226.25 L 335 226.25" opacity="1"></path><path fill="none" stroke="#B9CFD7" stroke-width="0.5" class="highcharts-grid-line" d="M 53 198.25 L 335 198.25" opacity="1"></path><path fill="none" stroke="#B9CFD7" stroke-width="0.5" class="highcharts-grid-line" d="M 53 170.25 L 335 170.25" opacity="1"></path><path fill="none" stroke="#B9CFD7" stroke-width="0.5" class="highcharts-grid-line" d="M 53 142.25 L 335 142.25" opacity="1"></path><path fill="none" stroke="#B9CFD7" stroke-width="0.5" class="highcharts-grid-line" d="M 53 115.25 L 335 115.25" opacity="1"></path><path fill="none" stroke="#B9CFD7" stroke-width="0.5" class="highcharts-grid-line" d="M 53 86.75 L 335 86.75" opacity="1"></path></g><rect fill="none" class="highcharts-plot-border" x="53" y="87" width="282" height="277"></rect><g class="highcharts-axis highcharts-xaxis "><path fill="none" class="highcharts-tick" stroke="#FFFFFF" stroke-width="1" d="M 108.5 364 L 108.5 374" opacity="1"></path><path fill="none" class="highcharts-tick" stroke="#FFFFFF" stroke-width="1" d="M 165.5 364 L 165.5 374" opacity="1"></path><path fill="none" class="highcharts-tick" stroke="#FFFFFF" stroke-width="1" d="M 221.5 364 L 221.5 374" opacity="1"></path><path fill="none" class="highcharts-tick" stroke="#FFFFFF" stroke-width="1" d="M 278.5 364 L 278.5 374" opacity="1"></path><path fill="none" class="highcharts-tick" stroke="#FFFFFF" stroke-width="1" d="M 335.5 364 L 335.5 374" opacity="1"></path><path fill="none" class="highcharts-tick" stroke="#FFFFFF" stroke-width="1" d="M 52.5 364 L 52.5 374" opacity="1"></path><path fill="none" class="highcharts-axis-line" stroke="#B9CFD7" stroke-width="0.5" d="M 53 364.25 L 335 364.25"></path></g><g class="highcharts-axis highcharts-yaxis "><path fill="none" class="highcharts-axis-line" d="M 53 87 L 53 364"></path></g><g class="highcharts-series-group"><g class="highcharts-series highcharts-series-0 highcharts-column-series highcharts-color-undefined " transform="translate(53,87) scale(1 1)" clip-path="url(#highcharts-wx0vvp8-7)"><rect x="15" y="0" width="28" height="6" fill="#dc440e" class="highcharts-point"></rect><rect x="71" y="0" width="28" height="6" fill="#dc440e" class="highcharts-point"></rect><rect x="127" y="0" width="28" height="4" fill="#dc440e" class="highcharts-point"></rect><rect x="184" y="0" width="28" height="5" fill="#dc440e" class="highcharts-point"></rect><rect x="240" y="0" width="28" height="5" fill="#dc440e" class="highcharts-point"></rect></g><g class="highcharts-markers highcharts-series-0 highcharts-column-series highcharts-color-undefined " transform="translate(53,87) scale(1 1)" clip-path="none"></g><g class="highcharts-series highcharts-series-1 highcharts-column-series highcharts-color-undefined " transform="translate(53,87) scale(1 1)" clip-path="url(#highcharts-wx0vvp8-7)"><rect x="15" y="6" width="28" height="43" fill="#ffbb58" class="highcharts-point"></rect><rect x="71" y="6" width="28" height="48" fill="#ffbb58" class="highcharts-point"></rect><rect x="127" y="4" width="28" height="54" fill="#ffbb58" class="highcharts-point"></rect><rect x="184" y="5" width="28" height="38" fill="#ffbb58" class="highcharts-point"></rect><rect x="240" y="5" width="28" height="34" fill="#ffbb58" class="highcharts-point"></rect></g><g class="highcharts-markers highcharts-series-1 highcharts-column-series highcharts-color-undefined " transform="translate(53,87) scale(1 1)" clip-path="none"></g><g class="highcharts-series highcharts-series-2 highcharts-column-series highcharts-color-undefined " transform="translate(53,87) scale(1 1)" clip-path="url(#highcharts-wx0vvp8-7)"><rect x="15" y="49" width="28" height="6" fill="#999999" class="highcharts-point"></rect><rect x="71" y="54" width="28" height="6" fill="#999999" class="highcharts-point"></rect><rect x="127" y="58" width="28" height="6" fill="#999999" class="highcharts-point"></rect><rect x="184" y="43" width="28" height="4" fill="#999999" class="highcharts-point"></rect><rect x="240" y="39" width="28" height="6" fill="#999999" class="highcharts-point"></rect></g><g class="highcharts-markers highcharts-series-2 highcharts-column-series highcharts-color-undefined " transform="translate(53,87) scale(1 1)" clip-path="none"></g><g class="highcharts-series highcharts-series-3 highcharts-column-series highcharts-color-undefined " transform="translate(53,87) scale(1 1)" clip-path="url(#highcharts-wx0vvp8-7)"><rect x="15" y="55" width="28" height="172" fill="#68ab2b" class="highcharts-point"></rect><rect x="71" y="60" width="28" height="175" fill="#68ab2b" class="highcharts-point"></rect><rect x="127" y="64" width="28" height="178" fill="#68ab2b" class="highcharts-point"></rect><rect x="184" y="47" width="28" height="155" fill="#68ab2b" class="highcharts-point"></rect><rect x="240" y="45" width="28" height="169" fill="#68ab2b" class="highcharts-point"></rect></g><g class="highcharts-markers highcharts-series-3 highcharts-column-series highcharts-color-undefined " transform="translate(53,87) scale(1 1)" clip-path="none"></g><g class="highcharts-series highcharts-series-4 highcharts-column-series highcharts-color-undefined " transform="translate(53,87) scale(1 1)" clip-path="url(#highcharts-wx0vvp8-7)"><rect x="15" y="227" width="28" height="51" fill="#007a2f" class="highcharts-point"></rect><rect x="71" y="235" width="28" height="43" fill="#007a2f" class="highcharts-point"></rect><rect x="127" y="242" width="28" height="36" fill="#007a2f" class="highcharts-point"></rect><rect x="184" y="202" width="28" height="76" fill="#007a2f" class="highcharts-point"></rect><rect x="240" y="214" width="28" height="64" fill="#007a2f" class="highcharts-point"></rect></g><g class="highcharts-markers highcharts-series-4 highcharts-column-series highcharts-color-undefined " transform="translate(53,87) scale(1 1)" clip-path="none"></g></g><text x="10" text-anchor="start" class="highcharts-title" style="color:#000000;font-size:14px;font-weight:bold;fill:#000000;" y="21"><tspan>Zufriedenheit mit Gestaltung und Erhaltung von Gebäuden und</tspan><tspan dy="17" x="10">Strassenbild</tspan><title>Zufriedenheit mit Gestaltung und Erhaltung von Gebäuden und Strassenbild</title></text><text x="10" text-anchor="start" class="highcharts-subtitle" style="color:#000000;font-size:12px;fill:#000000;" y="57"><tspan>«Wie zufrieden sind Sie mit der Gestaltung und Erhaltung von Gebäuden und</tspan><tspan dy="15" x="10">Strassenbild?»</tspan><title>«Wie zufrieden sind Sie mit der Gestaltung und Erhaltung von Gebäuden und Strassenbild?»</title></text><g class="highcharts-legend" transform="translate(347,137)"><rect fill="none" class="highcharts-legend-box" rx="0" ry="0" x="0" y="0" width="128" height="121" visibility="visible"></rect><g><g><g class="highcharts-legend-item highcharts-column-series highcharts-color-undefined highcharts-series-0" transform="translate(8,3)"><text x="21" style="color:#333333;font-size:12px;font-weight:normal;cursor:pointer;fill:#333333;" text-anchor="start" y="15"><tspan>Sehr unzufrieden</tspan></text><rect x="2" y="4" width="12" height="12" fill="#dc440e" class="highcharts-point"></rect></g><g class="highcharts-legend-item highcharts-column-series highcharts-color-undefined highcharts-series-1" transform="translate(8,22)"><text x="21" y="15" style="color:#333333;font-size:12px;font-weight:normal;cursor:pointer;fill:#333333;" text-anchor="start"><tspan>Eher unzufrieden</tspan></text><rect x="2" y="4" width="12" height="12" fill="#ffbb58" class="highcharts-point"></rect></g><g class="highcharts-legend-item highcharts-column-series highcharts-color-undefined highcharts-series-2" transform="translate(8,41)"><text x="21" y="15" style="color:#333333;font-size:12px;font-weight:normal;cursor:pointer;fill:#333333;" text-anchor="start"><tspan>Weiss nicht /</tspan><tspan x="21" dy="15">Keine Angabe</tspan></text><rect x="2" y="4" width="12" height="12" fill="#999999" class="highcharts-point"></rect></g><g class="highcharts-legend-item highcharts-column-series highcharts-color-undefined highcharts-series-3" transform="translate(8,75)"><text x="21" y="15" style="color:#333333;font-size:12px;font-weight:normal;cursor:pointer;fill:#333333;" text-anchor="start"><tspan>Eher zufrieden</tspan></text><rect x="2" y="4" width="12" height="12" fill="#68ab2b" class="highcharts-point"></rect></g><g class="highcharts-legend-item highcharts-column-series highcharts-color-undefined highcharts-series-4" transform="translate(8,94)"><text x="21" y="15" style="color:#333333;font-size:12px;font-weight:normal;cursor:pointer;fill:#333333;" text-anchor="start"><tspan>Sehr zufrieden</tspan></text><rect x="2" y="4" width="12" height="12" fill="#007a2f" class="highcharts-point"></rect></g></g></g></g><g class="highcharts-axis-labels highcharts-xaxis-labels "><text x="81.2" style="color:#000000;cursor:default;font-size:11px;fill:#000000;" text-anchor="middle" transform="translate(0,0)" y="383" opacity="1"><tspan>2003</tspan></text><text x="137.60000000000002" style="color:#000000;cursor:default;font-size:11px;fill:#000000;" text-anchor="middle" transform="translate(0,0)" y="383" opacity="1"><tspan>2005</tspan></text><text x="194" style="color:#000000;cursor:default;font-size:11px;fill:#000000;" text-anchor="middle" transform="translate(0,0)" y="383" opacity="1"><tspan>2007</tspan></text><text x="250.40000000000003" style="color:#000000;cursor:default;font-size:11px;fill:#000000;" text-anchor="middle" transform="translate(0,0)" y="383" opacity="1"><tspan>2011</tspan></text><text x="306.8" style="color:#000000;cursor:default;font-size:11px;fill:#000000;" text-anchor="middle" transform="translate(0,0)" y="383" opacity="1"><tspan>2015</tspan></text></g><g class="highcharts-axis-labels highcharts-yaxis-labels "><text x="38" style="color:#000000;cursor:default;font-size:11px;fill:#000000;" text-anchor="end" transform="translate(0,0)" y="369" opacity="1"><tspan>0%</tspan></text><text x="38" style="color:#000000;cursor:default;font-size:11px;fill:#000000;" text-anchor="end" transform="translate(0,0)" y="341" opacity="1"><tspan>10%</tspan></text><text x="38" style="color:#000000;cursor:default;font-size:11px;fill:#000000;" text-anchor="end" transform="translate(0,0)" y="313" opacity="1"><tspan>20%</tspan></text><text x="38" style="color:#000000;cursor:default;font-size:11px;fill:#000000;" text-anchor="end" transform="translate(0,0)" y="285" opacity="1"><tspan>30%</tspan></text><text x="38" style="color:#000000;cursor:default;font-size:11px;fill:#000000;" text-anchor="end" transform="translate(0,0)" y="258" opacity="1"><tspan>40%</tspan></text><text x="38" style="color:#000000;cursor:default;font-size:11px;fill:#000000;" text-anchor="end" transform="translate(0,0)" y="230" opacity="1"><tspan>50%</tspan></text><text x="38" style="color:#000000;cursor:default;font-size:11px;fill:#000000;" text-anchor="end" transform="translate(0,0)" y="202" opacity="1"><tspan>60%</tspan></text><text x="38" style="color:#000000;cursor:default;font-size:11px;fill:#000000;" text-anchor="end" transform="translate(0,0)" y="175" opacity="1"><tspan>70%</tspan></text><text x="38" style="color:#000000;cursor:default;font-size:11px;fill:#000000;" text-anchor="end" transform="translate(0,0)" y="147" opacity="1"><tspan>80%</tspan></text><text x="38" style="color:#000000;cursor:default;font-size:11px;fill:#000000;" text-anchor="end" transform="translate(0,0)" y="119" opacity="1"><tspan>90%</tspan></text><text x="38" style="color:#000000;cursor:default;font-size:11px;fill:#000000;" text-anchor="end" transform="translate(0,0)" y="92" opacity="1"><tspan>100%</tspan></text></g><text x="10" class="highcharts-credits" text-anchor="start" style="cursor:default;color:#000000;font-size:10px;fill:#000000;" y="400"><tspan>Quelle: Statistisches Amt Basel-Stadt, kantonale Bevölkerungsbefragung: F6_13</tspan></text></svg>

<svg class="highcharts-root" xmlns="http://www.w3.org/2000/svg" width="485" height="415" font-family="arial" font-size="12">
    <defs>
        <clipPath id="a">
            <path fill="none" d="M0 0h282v277H0z"/>
        </clipPath>
    </defs>
    <rect fill="#fbfbfb" class="highcharts-background" width="485" height="415" rx="0" ry="0"/>
    <path fill="none" class="highcharts-plot-background" d="M53 87h282v277H53z"/>
    <g class="highcharts-grid highcharts-xaxis-grid">
        <path fill="none" class="highcharts-grid-line" d="M108.5 87v277m57-277v277m56-277v277m57-277v277m56-277v277M52.5 87v277"/>
    </g>
    <g class="highcharts-grid highcharts-yaxis-grid">
        <path fill="none" stroke="#B9CFD7" stroke-width=".5" class="highcharts-grid-line" d="M53 364.25h282m-282-28h282m-282-27h282m-282-28h282m-282-28h282m-282-27h282m-282-28h282m-282-28h282m-282-28h282m-282-27h282M53 86.75h282"/>
    </g>
    <path fill="none" class="highcharts-plot-border" d="M53 87h282v277H53z"/>
    <g class="highcharts-axis highcharts-xaxis">
        <path fill="none" class="highcharts-tick" stroke="#FFF" d="M108.5 364v10m57-10v10m56-10v10m57-10v10m57-10v10m-283-10v10"/>
        <path fill="none" class="highcharts-axis-line" stroke="#B9CFD7" stroke-width=".5" d="M53 364.25h282"/>
    </g>
    <g class="highcharts-axis highcharts-yaxis">
        <path fill="none" class="highcharts-axis-line" d="M53 87v277"/>
    </g>
    <g class="highcharts-series-group">
        <g class="highcharts-series highcharts-series-0 highcharts-column-series highcharts-color-undefined" transform="translate(53 87)" clip-path="url(#a)">
            <path fill="#dc440e" class="highcharts-point" d="M15 0h28v6H15zm56 0h28v6H71zm56 0h28v4h-28zm57 0h28v5h-28zm56 0h28v5h-28z"/>
        </g>
        <g class="highcharts-series highcharts-series-1 highcharts-column-series highcharts-color-undefined" transform="translate(53 87)" clip-path="url(#a)">
            <path fill="#ffbb58" class="highcharts-point" d="M15 6h28v43H15zm56 0h28v48H71zm56-2h28v54h-28zm57 1h28v38h-28zm56 0h28v34h-28z"/>
        </g>
        <g class="highcharts-series highcharts-series-2 highcharts-column-series highcharts-color-undefined" transform="translate(53 87)" clip-path="url(#a)">
            <path fill="#999" class="highcharts-point" d="M15 49h28v6H15zm56 5h28v6H71zm56 4h28v6h-28zm57-15h28v4h-28zm56-4h28v6h-28z"/>
        </g>
        <g class="highcharts-series highcharts-series-3 highcharts-column-series highcharts-color-undefined" transform="translate(53 87)" clip-path="url(#a)">
            <path fill="#68ab2b" class="highcharts-point" d="M15 55h28v172H15zm56 5h28v175H71zm56 4h28v178h-28zm57-17h28v155h-28zm56-2h28v169h-28z"/>
        </g>
        <g class="highcharts-series highcharts-series-4 highcharts-column-series highcharts-color-undefined" transform="translate(53 87)" clip-path="url(#a)">
            <path fill="#007a2f" class="highcharts-point" d="M15 227h28v51H15zm56 8h28v43H71zm56 7h28v36h-28zm57-40h28v76h-28zm56 12h28v64h-28z"/>
        </g>
    </g>
    <text x="10" class="highcharts-title" y="21" color="#000" font-size="14" font-weight="700">
        <tspan>Zufriedenheit mit Gestaltung und Erhaltung von Gebäuden und</tspan><tspan dy="17" x="10">Strassenbild</tspan><title>Zufriedenheit mit Gestaltung und Erhaltung von Gebäuden und Strassenbild</title>
    </text>
    <text x="10" class="highcharts-subtitle" y="57" color="#000">
        <tspan>«Wie zufrieden sind Sie mit der Gestaltung und Erhaltung von Gebäuden und</tspan><tspan dy="15" x="10">Strassenbild?»</tspan><title>«Wie zufrieden sind Sie mit der Gestaltung und Erhaltung von Gebäuden und Strassenbild?»</title>
    </text>
    <g class="highcharts-legend" transform="translate(347 137)">
        <rect fill="none" class="highcharts-legend-box" rx="0" ry="0" width="128" height="121"/>
        <g class="highcharts-legend-item highcharts-column-series highcharts-color-undefined highcharts-series-0">
            <text x="21" y="15" color="#333" font-weight="400" cursor="pointer" fill="#333" transform="translate(8 3)">
                <tspan>Sehr unzufrieden</tspan>
            </text>
            <path fill="#dc440e" class="highcharts-point" d="M10 7h12v12H10z"/>
        </g>
        <g class="highcharts-legend-item highcharts-column-series highcharts-color-undefined highcharts-series-1">
            <text x="21" y="15" color="#333" font-weight="400" cursor="pointer" fill="#333" transform="translate(8 22)">
                <tspan>Eher unzufrieden</tspan>
            </text>
            <path fill="#ffbb58" class="highcharts-point" d="M10 26h12v12H10z"/>
        </g>
        <g class="highcharts-legend-item highcharts-column-series highcharts-color-undefined highcharts-series-2">
            <text x="21" y="15" color="#333" font-weight="400" cursor="pointer" fill="#333" transform="translate(8 41)">
                <tspan>Weiss nicht /</tspan><tspan x="21" dy="15">Keine Angabe</tspan>
            </text>
            <path fill="#999" class="highcharts-point" d="M10 45h12v12H10z"/>
        </g>
        <g class="highcharts-legend-item highcharts-column-series highcharts-color-undefined highcharts-series-3">
            <text x="21" y="15" color="#333" font-weight="400" cursor="pointer" fill="#333" transform="translate(8 75)">
                <tspan>Eher zufrieden</tspan>
            </text>
            <path fill="#68ab2b" class="highcharts-point" d="M10 79h12v12H10z"/>
        </g>
        <g class="highcharts-legend-item highcharts-column-series highcharts-color-undefined highcharts-series-4">
            <text x="21" y="15" color="#333" font-weight="400" cursor="pointer" fill="#333" transform="translate(8 94)">
                <tspan>Sehr zufrieden</tspan>
            </text>
            <path fill="#007a2f" class="highcharts-point" d="M10 98h12v12H10z"/>
        </g>
    </g>
    <g class="highcharts-axis-labels highcharts-xaxis-labels" text-anchor="middle" color="#000" cursor="default" font-size="11">
        <text x="81.2" y="383">
            <tspan>2003</tspan>
        </text>
        <text x="137.6" y="383">
            <tspan>2005</tspan>
        </text>
        <text x="194" y="383">
            <tspan>2007</tspan>
        </text>
        <text x="250.4" y="383">
            <tspan>2011</tspan>
        </text>
        <text x="306.8" y="383">
            <tspan>2015</tspan>
        </text>
    </g>
    <g class="highcharts-axis-labels highcharts-yaxis-labels" text-anchor="end" color="#000" cursor="default" font-size="11">
        <text x="38" y="369">
            <tspan>0%</tspan>
        </text>
        <text x="38" y="341">
            <tspan>10%</tspan>
        </text>
        <text x="38" y="313">
            <tspan>20%</tspan>
        </text>
        <text x="38" y="285">
            <tspan>30%</tspan>
        </text>
        <text x="38" y="258">
            <tspan>40%</tspan>
        </text>
        <text x="38" y="230">
            <tspan>50%</tspan>
        </text>
        <text x="38" y="202">
            <tspan>60%</tspan>
        </text>
        <text x="38" y="175">
            <tspan>70%</tspan>
        </text>
        <text x="38" y="147">
            <tspan>80%</tspan>
        </text>
        <text x="38" y="119">
            <tspan>90%</tspan>
        </text>
        <text x="38" y="92">
            <tspan>100%</tspan>
        </text>
    </g>
    <text x="10" class="highcharts-credits" y="400" cursor="default" color="#000" font-size="10">
        <tspan>Quelle: Statistisches Amt Basel-Stadt, kantonale Bevölkerungsbefragung: F6_13</tspan>
    </text>
</svg>
